icons/1_Primary/Canapii.svg

<svg width="1024" height="1024" viewBox="0 0 1024 1024" fill="none" xmlns="http://www.w3.org/2000/svg">
<g clip-path="url(#clip0_2_1767)">
<path d="M512 1024C794.77 1024 1024 794.77 1024 512C1024 229.23 794.77 0 512 0C229.23 0 0 229.23 0 512C0 794.77 229.23 1024 512 1024Z" fill="#728DBE"/>
<path d="M519.249 289.35C529.329 292.27 539.879 293.44 549.639 297.44C578.759 308.57 602.209 330.99 619.889 356.18C643.889 390.54 658.099 430.75 666.489 471.56C653.259 471.82 644.069 482.75 638.059 493.34C627.249 512.92 621.379 534.76 616.159 556.34C609.159 586.48 604.829 617.15 601.299 647.88C600.959 654.53 594.869 660.16 588.299 660.3C580.299 660.52 572.299 660.36 564.299 660.4C555.829 660.86 547.059 654.51 546.069 645.86C540.643 620.536 533.151 595.7 523.669 571.6C521.859 566.7 518.809 562 519.089 556.6C519.269 467.54 518.999 378.44 519.249 289.35ZM405.119 355.85C371.809 404.12 355.819 462.68 352.209 520.75C364.089 503.25 378.969 486.85 398.419 477.75C406.851 473.845 416.043 471.855 425.334 471.924C434.626 471.994 443.787 474.12 452.159 478.15C475.849 489.7 492.589 511.4 505.589 533.72V289.46C495.709 292.22 485.369 293.27 475.789 297.12C446.429 308.09 422.879 330.59 405.119 355.85ZM255.999 544.71C256.039 579.05 256.039 613.383 255.999 647.71C255.539 653.64 260.319 660.27 266.609 660.33C273.279 660.55 279.939 660.53 286.609 660.33C293.969 660.11 301.609 655.03 303.179 647.57C310.659 613.57 320.859 579.94 336.249 548.63C337.979 545.63 337.719 542.04 337.819 538.71C339.249 480.48 351.549 421.56 380.059 370.36C395.059 343.42 414.819 318.6 440.189 300.74C373.589 319.94 316.059 367.82 284.689 429.57C266.229 465.08 257.399 504.94 255.999 544.71ZM617.419 330.91C652.239 371.91 671.659 423.91 680.899 476.41C681.339 478.73 683.359 480.28 684.729 482.08C694.089 492.42 699.249 505.71 704.009 518.6C717.299 557.09 723.589 597.54 728.529 637.81C729.719 644.18 728.529 652.09 734.159 656.68C740.309 662.31 749.359 660.09 756.939 660.39C762.729 660.73 768.449 655.79 767.939 649.8C767.939 611.39 768.079 572.98 767.859 534.59C766.002 492.327 753.647 451.192 731.909 414.9C699.159 360.3 645.549 318.22 584.209 300.75C596.581 309.27 607.751 319.414 617.419 330.91ZM408.769 554.75C416.109 585.4 420.609 616.67 424.279 647.95C425.049 656.12 433.369 661.72 441.279 660.47C452.279 659.3 465.579 663.8 474.609 655.37C479.609 651.22 480.129 644.37 481.609 638.53C487.779 613.22 495.479 588.22 505.869 564.29C499.159 549.57 491.329 535.29 481.469 522.37C469.589 506.96 454.349 492.08 434.589 488.15C418.879 484.82 402.889 491.15 390.589 500.83C398.999 518 404.289 536.32 408.769 554.75ZM695.769 564.13C700.829 575.97 705.649 587.98 708.689 600.51C708.61 595.767 708.172 591.036 707.379 586.36C702.499 561.94 697.319 537.36 687.999 514.23C684.609 506.23 680.859 498.1 674.729 491.81C672.309 489.47 669.309 486.93 665.729 487.27C660.099 488.58 656.779 493.78 653.129 497.78C671.879 516.54 685.129 540 695.719 564.14L695.769 564.13Z" fill="white"/>
</g>
<defs>
<clipPath id="clip0_2_1767">
<rect width="1024" height="1024" fill="white"/>
</clipPath>
</defs>
</svg>

<svg xmlns="http://www.w3.org/2000/svg" viewBox="0 0 1024 1024">
   <circle cx="512" cy="512" r="512" style="fill:#114676"/>
   <path d="M519.25 289.35c10.08 2.92 20.63 4.09 30.39 8.09 29.12 11.13 52.57 33.55 70.25 58.74 24 34.36 38.21 74.57 46.6 115.38-13.23.26-22.42 11.19-28.43 21.78-10.81 19.58-16.68 41.42-21.9 63-7 30.14-11.33 60.81-14.86 91.54-.34 6.65-6.43 12.28-13 12.42-8 .22-16 .06-24 .1-8.47.46-17.24-5.89-18.23-14.54a474.22 474.22 0 0 0-22.4-74.26c-1.81-4.9-4.86-9.6-4.58-15 .18-89.06-.09-178.16.16-267.25Zm-114.13 66.5c-33.31 48.27-49.3 106.83-52.91 164.9 11.88-17.5 26.76-33.9 46.21-43a62.93 62.93 0 0 1 53.74.4c23.69 11.55 40.43 33.25 53.43 55.57V289.46c-9.88 2.76-20.22 3.81-29.8 7.66-29.36 10.97-52.91 33.47-70.67 58.73ZM256 544.71q.06 51.51 0 103c-.46 5.93 4.32 12.56 10.61 12.62 6.67.22 13.33.2 20 0 7.36-.22 15-5.3 16.57-12.76 7.48-34 17.68-67.63 33.07-98.94 1.73-3 1.47-6.59 1.57-9.92 1.43-58.23 13.73-117.15 42.24-168.35 15-26.94 34.76-51.76 60.13-69.62-66.6 19.2-124.13 67.08-155.5 128.83-18.46 35.51-27.29 75.37-28.69 115.14Zm361.42-213.8c34.82 41 54.24 93 63.48 145.5.44 2.32 2.46 3.87 3.83 5.67 9.36 10.34 14.52 23.63 19.28 36.52 13.29 38.49 19.58 78.94 24.52 119.21 1.19 6.37 0 14.28 5.63 18.87 6.15 5.63 15.2 3.41 22.78 3.71 5.79.34 11.51-4.6 11-10.59 0-38.41.14-76.82-.08-115.21a254.7 254.7 0 0 0-35.95-119.69c-32.75-54.6-86.36-96.68-147.7-114.15a167.63 167.63 0 0 1 33.21 30.16ZM408.77 554.75c7.34 30.65 11.84 61.92 15.51 93.2.77 8.17 9.09 13.77 17 12.52 11-1.17 24.3 3.33 33.33-5.1 5-4.15 5.52-11 7-16.84 6.17-25.31 13.87-50.31 24.26-74.24-6.71-14.72-14.54-29-24.4-41.92-11.88-15.41-27.12-30.29-46.88-34.22-15.71-3.33-31.7 3-44 12.68 8.41 17.17 13.7 35.49 18.18 53.92Zm287 9.38c5.06 11.84 9.88 23.85 12.92 36.38a94 94 0 0 0-1.31-14.15c-4.88-24.42-10.06-49-19.38-72.13-3.39-8-7.14-16.13-13.27-22.42-2.42-2.34-5.42-4.88-9-4.54-5.63 1.31-8.95 6.51-12.6 10.51 18.75 18.76 32 42.22 42.59 66.36Z" style="fill:#fff"/>
</svg>
